X:49
T:Polska fr{\aa}n Sm{\aa}land
R:sl\"angpolska
A:Sm{\aa}land
Z:id:hn-sp-49
M:3/4
L:1/16
K:Bm
f3f B2f2 B2f2|g3f e2f2 g2a2|e3e A2e2 A2e2|f3e d2e2 f2g2|f2gf e2d2 c2B2|
ABcA B8:||:c3c E2c2 E2c2|d3c B2c2 d2e2|c3c E2c2 E2c2|d3c B2c2 d2e2|
e3e A2e2 A2e2|f3e d2e2 f2g2|f2gf e2d2 c2B2|ABcA B8:|
<end>
<start>
